X: 1
T:The British Grenadiers
M:4/4
C:
S:Roll Out the Bear'Ale
N:as used for The Three Musketeers
A:Adderbury, etc.
O:English
R:Reel
P:A(AB2)4
K:G
I:speed 400
P:A
D2 | G2 D2 G2 A2 | B2 cB A2 Bc | d2 G2 G2 B2 | AGFE  D2 \
D2 | G2 D2 G2 A2 | B2 AB c2 Bc | d2 G2 BAGF  | G6       ||\
P:B
Bc | d3 e  d2 c2 | B2 c2 d2 d2 | e2 e2 dcBA  | G4    F2 \
D2 | G2 D2 G2 A2 | B2 AB c2 Bc | d2 G2 BAGF  | G6       ||
